**kern	**silbe
*ICvox	*
*A:	*
*M4/4	*
*clefF4	*
r;	.
=1	=1
1r	.
=2	=2
1r	.
=3	=3
1r	.
=4	=4
1r	.
=5	=5
1r	.
=6	=6
1r	.
=7	=7
1r	.
=8	=8
1r	.
=9	=9
1r	.
=10	=10
1r	.
=11	=11
1r	.
=12	=12
1r	.
=13	=13
1r	.
=14	=14
1r	.
=15	=15
1r	.
=16	=16
1r	.
=17	=17
8G	There
4G	is
4G	no-
4A	-thing
[8B	that
=18	=18
8B]	_
4B	is
4A	wrong
8r	.
4r	.
=19	=19
8G	Wan-
4G	-ting
4G	you
4A	to
[8B	stay
=20	=20
4.B]	_
4.A	here
4G	with
=21	=21
2F#	me
2r	.
=22	=22
2r	.
4r	.
8r	.
8G	I
=23	=23
8G	know
4G	you
4G	got
4A	some-
[8B	-where
=24	=24
4B]	_
8B	to
4A	go
8r	.
8r	.
8G	but
=25	=25
8G	won't
4G	you
4G	make
4A	your-
[8B	-self
=26	=26
8B]	_
4B	at
8B	home
4A	_
4G	and
=27	=27
4F#	stay
8A	with
4.A	me
4r	.
=28	=28
2r	.
8r	.
8A	and
8A	don't
8A	you
=29	=29
4B	e-
8B	-ver
4.c#	leave
4r	.
=30	=30
1r	.
=31	=31
2e	Lay
4.c#	down
[8A	Sa-
=32	=32
8A]	_
8A	-lly
4r	.
4r	.
8r	.
8A	and
=33	=33
4A	rest
8A	here
4A	in
4A	my
[8D	arms
=34	=34
4D]	_
4r	.
2r	.
=35	=35
4B	Don't
8B	you
4B	think
4B	you
[8c#	want
=36	=36
8c#]	_
4c#	some-
8c#	-one
4B	_
8A	to
[8A	talk
=37	=37
4A]	_
8E	to?
8r	.
2r	.
=38	=38
1r	.
=39	=39
2e	Lay
4.c#	down
[8A	Sa-
=40	=40
8A]	_
8A	-lly
4r	.
4r	.
8r	.
8A	No
=41	=41
4A	need
8A	to
4A	leave
4A	so
[8D	soon
=42	=42
4D]	_
8r	.
8r	.
2r	.
=43	=43
8B	I've
4B	been
2B	trying
[8c#	all
=44	=44
8c#]	_
4c#	night
8c#	long
4B	_
8A	just
8A	to
=45	=45
4A	talk
8F#	to
4.A	you
4r	.
=46	=46
1r	.
=47	=47
1r	.
=48	=48
1r	.
=49	=49
1r	.
=50	=50
1r	.
=51	=51
1r	.
=52	=52
1r	.
=53	=53
1r	.
=54	=54
1r	.
=55	=55
8G	Sun
4G	ain't
4G	near-
4A	-ly
[8B	on
=56	=56
8B]	_
4B	the
4.A	rise
4r	.
=57	=57
8G	We
4G	still
4G	got
4A	the
[8B	moon
=58	=58
8B]	_
4B	and
8B	stars
4A	_
8G	a-
[8F#	-bove
=59	=59
4F#]	_
4r	.
2r	.
=60	=60
1r	.
=61	=61
8G	Un-
4G	-der-
4G	-neath
4A	the
[8B	vel-
=62	=62
8B]	_
4B	-vet
4.A	skies
4r	.
=63	=63
8G	love
4G	is
4G	all
4A	that
[8B	ma-
=64	=64
8B]	_
4B	-tters
8B	Won't
4A	_
4G	you
=65	=65
4F#	stay
8A	with
4.A	me?
4r	.
=66	=66
2r	.
4r	.
8A	Don't
8A	you
=67	=67
4B	e-
8B	-ver
4.c#	leave
4r	.
=68	=68
1r	.
=69	=69
2e	Lay
4.c#	down
[8A	Sa-
=70	=70
8A]	_
8A	-lly
4r	.
4r	.
8r	.
8A	and
=71	=71
4A	rest
8A	here
4A	in
4A	my
[8D	arms
=72	=72
4D]	_
4r	.
2r	.
=73	=73
4B	Don't
8B	you
4B	think
4B	you
[8c#	want
=74	=74
8c#]	_
4c#	some-
8c#	-one
4B	_
8A	to
[8A	talk
=75	=75
4A]	_
8E	to?
8r	.
2r	.
=76	=76
1r	.
=77	=77
2e	Lay
4.c#	down
[8A	Sa-
=78	=78
8A]	_
8A	-lly
4r	.
8r	.
8A	Ain't
4A	no
=79	=79
4A	need
8A	to
4A	leave
4A	so
8r	.
=80	=80
4D	soon
4r	.
2r	.
=81	=81
8B	I've
4B	been
2B	trying
[8c#	all
=82	=82
8c#]	_
4c#	night
8c#	long
4B	_
8A	just
8A	to
=83	=83
4A	talk
8F#	to
4.A	you
4r	.
=84	=84
1r	.
=85	=85
1r	.
=86	=86
1r	.
=87	=87
1r	.
=88	=88
1r	.
=89	=89
1r	.
=90	=90
1r	.
=91	=91
1r	.
=92	=92
1r	.
=93	=93
1r	.
=94	=94
1r	.
=95	=95
1r	.
=96	=96
1r	.
=97	=97
1r	.
=98	=98
1r	.
=99	=99
1r	.
=100	=100
1r	.
=101	=101
1r	.
=102	=102
1r	.
=103	=103
1r	.
=104	=104
1r	.
=105	=105
1r	.
=106	=106
1r	.
=107	=107
1r	.
=108	=108
1r	.
=109	=109
1r	.
=110	=110
1r	.
=111	=111
1r	.
=112	=112
1r	.
=113	=113
1r	.
=114	=114
1r	.
=115	=115
1r	.
=116	=116
2r	.
4r	.
8r	.
8E	I
=117	=117
4G	long
8G	to
4G	see
4A	the
[8B	morn-
=118	=118
8B]	_
4B	-ing
4.A	light
4r	.
=119	=119
8G	Col-
4G	-or-
4G	-ing
4A	your
[8B	face
=120	=120
8B]	_
4B	so
4.A	dream-
8G	-i-
[8F#	-ly
=121	=121
2F#]	_
2r	.
=122	=122
2r	.
4.r	.
8G	So
=123	=123
8G	don't
4G	you
4G	go
4A	and
[8B	say
=124	=124
8B]	_
4B	good-
4.A	-bye
4r	.
=125	=125
8G	You
4G	can
4G	lay
4A	your
[8B	wor-
=126	=126
8B]	_
4B	-ries
8B	down
4A	_
4G	and
=127	=127
4F#	stay
8A	with
4.A	me
4r	.
=128	=128
2r	.
4r	.
8A	Don't
8A	you
=129	=129
4B	e-
8B	-ver
4.c#	leave
4r	.
=130	=130
1r	.
=131	=131
2e	Lay
4.c#	down
[8A	Sa-
=132	=132
8A]	_
8A	-lly
4r	.
4r	.
8r	.
8A	and
=133	=133
4A	rest
8A	here
4A	in
4A	my
[8D	arms
=134	=134
4D]	_
4r	.
2r	.
=135	=135
4B	Don't
8B	you
4B	think
4B	you
[8c#	want
=136	=136
8c#]	_
4c#	some-
8c#	-one
4B	_
8A	to
[8A	talk
=137	=137
4A]	_
8E	to?
8r	.
2r	.
=138	=138
1r	.
=139	=139
2e	Lay
4.c#	down
[8A	Sa-
=140	=140
8A]	_
8A	-lly
4r	.
8r	.
8A	There's
4A	no
=141	=141
4A	need
8A	to
4A	leave
4A	so
[8D	soon
=142	=142
4D]	_
4r	.
2r	.
=143	=143
8B	I've
4B	been
2B	trying
[8c#	all
=144	=144
8c#]	_
4c#	night
8c#	long
4B	_
8A	just
8A	to
=145	=145
4A	talk
8F#	to
4.A	you
4r	.
=146	=146
1r	.
=147	=147
2e	Lay
4.c#	down
[8A	Sa-
=148	=148
8A]	_
8A	-lly
4r	.
4r	.
8r	.
8A	and
=149	=149
4A	rest
8A	here
4A	in
4A	my
[8D	arms
=150	=150
4D]	_
4r	.
2r	.
=151	=151
4B	Don't
8B	you
4B	think
4B	you
[8c#	want
=152	=152
8c#]	_
4c#	some-
8c#	-one
4B	_
8A	to
[8A	talk
=153	=153
4A]	_
8E	to?
8r	.
2r	.
=154	=154
1r	.
=155	=155
2e	Lay
4.c#	down
[8A	Sa-
=156	=156
8A]	_
8A	-lly
4r	.
8r	.
8A	There's
4A	no
=157	=157
4A	need
8A	to
4A	leave
4.A	so
=158	=158
4D	soon
4r	.
2r	.
=159	=159
8B	I've
4B	been
2B	trying
[8c#	all
=160	=160
8c#]	_
4c#	night
8c#	long
4B	_
8A	just
8A	to
=161	=161
4A	talk
8F#	to
4.A	you
4r	.
=162	=162
1r	.
=163	=163
1r	.
=164	=164
1r	.
=165	=165
1r	.
=166	=166
1r	.
=167	=167
1r	.
=168	=168
1r	.
=169	=169
1r	.
=170	=170
1r	.
=171	=171
1r	.
=172	=172
1r	.
=173	=173
1r	.
=174	=174
1r	.
=175	=175
1r	.
=176	=176
1r	.
=177	=177
1r	.
=178	=178
1r	.
r;	.
r;	.
*-	*-
!!!ENC: Nathaniel Condit-Schultz